public/illustrations/_camera.svg

<svg width="335" height="223" viewBox="0 0 335 223" fill="none" xmlns="http://www.w3.org/2000/svg">
<path d="M298.181 193.987C297.473 193.987 297.049 193.703 296.482 193.703L255.988 192.004C255.281 192.004 254.431 192.004 253.723 191.721C252.874 191.438 252.024 191.296 251.174 191.438C250.325 191.438 249.475 191.721 248.626 192.287C239.989 196.11 231.635 194.978 224.415 188.889C217.194 182.943 214.504 174.731 216.486 165.386C216.769 164.395 216.91 163.262 216.769 162.271C216.769 161.28 216.203 160.147 215.636 159.298C213.937 156.749 212.805 153.918 211.247 150.944C208.699 151.652 206.291 152.36 204.026 153.068C201.761 153.776 199.212 154.626 196.664 155.475C191.708 157.033 189.726 156.325 186.894 152.077C184.062 147.688 181.514 143.299 178.682 139.051C177.974 137.919 177.266 136.927 176.417 135.795C175.284 136.361 174.151 136.786 173.16 137.352C161.55 143.157 150.082 149.104 138.472 154.909C136.489 155.9 134.507 156.466 132.383 156.891C131.109 157.174 129.835 156.891 128.561 156.325C127.428 155.758 126.437 154.767 126.012 153.493C123.888 149.529 121.764 145.706 119.499 141.741C119.074 141.033 118.791 140.184 118.225 138.91C115.393 139.901 112.703 140.75 110.013 141.883C101.942 144.856 100.102 143.44 96.7035 136.503C92.4559 128.149 88.0667 119.937 83.6775 111.584C81.129 106.77 81.5537 104.787 85.8013 101.248C89.0578 98.5576 92.3143 95.8675 95.7124 92.8942C93.5886 88.6466 91.6063 84.5406 89.4825 80.4346C87.3587 76.3286 87.9251 73.6385 92.0311 71.5147C98.1193 68.3998 104.208 65.5681 110.437 62.5948L238.998 1.28807C243.954 -1.11889 246.644 -0.269377 249.192 4.82772C259.953 25.924 270.855 47.1619 281.616 68.2582C282.607 70.0989 283.739 71.7979 284.872 73.4969C285.439 74.2048 285.863 75.0544 286.005 75.9039C286.146 76.7534 286.146 77.7445 286.005 78.594C285.722 79.4435 285.297 80.293 284.73 81.001C284.164 81.7089 283.456 82.2752 282.607 82.5584C273.828 86.806 265.05 91.1951 256.413 95.4427C255.28 96.0091 254.148 96.717 252.873 97.4249C254.572 103.372 256.13 109.177 257.829 114.982C260.236 123.477 260.094 123.902 253.157 129.14C250.75 130.981 248.343 132.821 245.511 134.945C246.361 137.494 247.21 140.042 248.343 142.449C250.467 146.555 252.024 150.944 255.988 153.776C256.838 154.484 257.829 155.05 258.962 155.192C271.705 155.758 284.447 156.325 297.049 156.891C297.615 156.891 298.323 156.891 298.889 156.749C298.889 155.475 299.031 154.201 299.031 152.927C299.031 147.971 299.031 143.157 299.314 138.202C299.314 133.105 301.863 130.556 306.96 130.698C313.756 130.839 320.552 131.122 327.348 131.689C332.728 132.113 334.286 133.954 334.286 139.476C334.286 164.112 334.003 188.889 333.861 213.525C333.861 219.047 331.737 221.171 326.215 221.454C320.127 221.737 314.18 222.021 308.092 222.304H305.827C301.013 222.162 298.04 219.472 298.04 214.658C298.04 210.127 298.181 205.597 298.323 201.207V194.27L298.181 193.987ZM133.516 145.564L273.262 74.9128C264.484 57.6393 255.988 40.9321 247.352 24.225C246.361 28.7558 245.653 33.4281 245.228 38.1004C244.803 43.6223 242.254 48.861 238.007 52.5422C233.193 57.0729 227.671 61.0374 221.724 64.0107C211.955 69.1078 202.044 74.0632 192.274 79.1603C177.974 86.2396 163.108 92.4694 147.816 97.4249C143.285 99.1239 138.33 99.9735 133.516 99.9735C126.012 99.8319 118.649 97.8497 112.136 94.31C110.862 93.4605 109.446 92.8942 108.03 92.7526C116.526 110.451 124.879 127.724 133.516 145.423V145.564ZM104.066 77.1781C108.03 80.293 112.278 82.9832 116.809 85.2486C121.34 87.6555 126.295 89.213 131.392 89.4961C136.489 89.7793 141.728 89.0714 146.542 87.2308C171.744 78.1693 196.097 66.9839 219.317 53.5333C223.707 50.9847 227.529 47.5867 231.635 44.3302C232.485 43.6222 233.335 42.6312 233.759 41.6401C234.326 40.649 234.609 39.5163 234.609 38.242C235.175 31.1627 235.742 24.225 236.308 17.1457C236.308 16.1546 236.166 15.3051 235.883 14.314L104.066 77.1781ZM194.965 144.998C200.203 143.299 205.017 141.741 209.973 140.325C214.362 138.91 216.486 139.759 219.034 143.865C220.733 146.555 222.291 149.387 223.707 151.652L238.432 145.989C237.299 143.016 236.025 139.901 234.892 136.644C233.618 133.105 234.184 130.839 237.016 128.432C238.007 127.583 238.998 126.875 239.989 126.025L248.201 119.654C246.502 113.849 244.945 108.185 243.104 102.097L186.186 130.839C189.16 135.653 191.991 140.184 195.106 145.139L194.965 144.998ZM323.242 210.835C323.525 187.615 323.808 164.961 324.092 142.166C319.419 141.175 314.605 141.033 309.791 141.458C309.367 164.82 308.942 188.04 308.517 211.543L323.242 210.835ZM298.464 167.368C286.288 166.802 274.395 165.953 262.077 165.811C263.634 171.474 261.793 176.288 260.378 181.669L298.323 183.368V167.368H298.464ZM239.14 183.792C245.369 184.5 252.166 178.27 252.307 170.483C252.307 167.085 250.891 163.829 248.626 161.28C246.219 158.873 243.104 157.316 239.564 157.174C233.476 156.891 226.538 162.696 226.538 170.483C226.538 178.27 233.476 184.217 239.281 183.651L239.14 183.792ZM106.19 131.83L113.977 129.14L100.809 102.239L93.8718 108.185L106.048 131.83H106.19Z" fill="#102185"/>
<path d="M23.645 178.27C20.2469 178.27 18.1232 176.854 17.4153 174.731C16.9905 173.739 17.1321 172.607 17.4153 171.474C17.84 170.483 18.5479 169.633 19.3974 169.067C33.8393 159.015 48.2811 149.104 62.8645 139.051C63.9972 138.201 65.2715 137.635 66.6874 137.352C67.6785 137.069 68.6696 137.352 69.5191 137.635C70.3686 138.06 71.2182 138.768 71.6429 139.617C72.2093 140.467 72.4924 141.316 72.4924 142.307C72.4924 143.298 72.0676 144.29 71.5013 144.998C70.6518 146.13 69.5191 147.121 68.3864 147.829C54.6525 157.457 40.777 167.085 26.9015 176.713C25.9104 177.279 24.7777 177.845 23.645 178.412V178.27Z" fill="#102185"/>
<path d="M61.8734 117.53C61.8734 118.805 61.4487 119.937 60.5991 120.928C59.7496 121.92 58.7585 122.486 57.4842 122.769C52.3871 124.185 47.29 125.318 42.1929 126.592C31.1491 129.424 20.1053 132.114 9.06158 134.804C7.64571 135.229 6.08829 135.37 4.67243 135.229C1.55752 134.662 0 133.105 0 130.556C0 128.008 1.55747 125.884 4.53079 125.176C8.49521 124.185 12.4597 123.194 16.4241 122.203C28.459 119.229 40.4938 116.256 52.5287 113.283C54.0861 112.858 55.7852 112.575 57.4842 112.717C58.0506 112.717 58.7585 112.858 59.3248 113.141C59.8912 113.424 60.3159 113.708 60.7407 114.274C61.1655 114.699 61.4486 115.265 61.7318 115.831C61.8734 116.398 62.015 116.964 62.015 117.672L61.8734 117.53Z" fill="#102185"/>
<path d="M60.8822 203.048C57.7673 203.048 55.502 201.066 55.7851 198.376C55.7851 196.393 56.4931 194.411 57.4842 192.571C64.4219 181.102 71.3596 169.775 78.439 158.448C78.8637 157.74 79.2885 157.174 79.8549 156.608C80.7044 155.758 81.8371 155.05 82.9698 154.909C84.244 154.767 85.3767 154.909 86.5094 155.617C87.5005 156.325 88.3501 157.316 88.6332 158.448C88.9164 159.581 88.9164 160.855 88.35 161.988C87.7837 163.262 87.0757 164.537 86.3678 165.669C81.6954 173.315 76.8815 180.961 72.3508 188.606C70.3686 191.721 68.6695 195.119 66.9705 198.376C65.5546 200.924 63.9971 203.048 61.1654 203.048H60.8822Z" fill="#102185"/>
</svg>

<svg xmlns="http://www.w3.org/2000/svg" width="335" height="223" fill="none" viewBox="0 0 335 223"><path fill="#102185" d="M298.181 193.987c-.708 0-1.132-.284-1.699-.284l-40.494-1.699c-.707 0-1.557 0-2.265-.283-.849-.283-1.699-.425-2.549-.283q-1.274 0-2.548.849c-8.637 3.823-16.991 2.691-24.211-3.398-7.221-5.946-9.911-14.158-7.929-23.503.283-.991.424-2.124.283-3.115 0-.991-.566-2.124-1.133-2.973-1.699-2.549-2.831-5.38-4.389-8.354a236 236 0 0 0-7.221 2.124c-2.265.708-4.814 1.558-7.362 2.407-4.956 1.558-6.938.85-9.77-3.398-2.832-4.389-5.38-8.778-8.212-13.026-.708-1.132-1.416-2.124-2.265-3.256-1.133.566-2.266.991-3.257 1.557-11.61 5.805-23.078 11.752-34.688 17.557-1.983.991-3.965 1.557-6.089 1.982-1.274.283-2.548 0-3.822-.566-1.133-.567-2.124-1.558-2.549-2.832a490 490 0 0 0-6.513-11.752c-.425-.708-.708-1.557-1.274-2.831-2.832.991-5.522 1.84-8.212 2.973-8.071 2.973-9.911 1.557-13.31-5.38-4.247-8.354-8.636-16.566-13.026-24.919-2.548-4.814-2.123-6.797 2.124-10.336 3.257-2.69 6.513-5.38 9.911-8.354-2.123-4.247-4.106-8.353-6.23-12.46-2.123-4.105-1.557-6.796 2.55-8.92 6.087-3.114 12.176-5.946 18.405-8.92L238.998 1.289c4.956-2.407 7.646-1.557 10.194 3.54 10.761 21.096 21.663 42.334 32.424 63.43.991 1.84 2.123 3.54 3.256 5.239.567.708.991 1.557 1.133 2.407.141.85.141 1.84 0 2.69-.283.85-.708 1.699-1.275 2.407-.566.708-1.274 1.274-2.123 1.557-8.779 4.248-17.557 8.637-26.194 12.885-1.133.566-2.265 1.274-3.54 1.982 1.699 5.947 3.257 11.752 4.956 17.557 2.407 8.495 2.265 8.92-4.672 14.158a971 971 0 0 1-7.646 5.805c.85 2.549 1.699 5.097 2.832 7.504 2.124 4.106 3.681 8.495 7.645 11.327.85.708 1.841 1.274 2.974 1.416 12.743.566 25.485 1.133 38.087 1.699.566 0 1.274 0 1.84-.142 0-1.274.142-2.548.142-3.822 0-4.956 0-9.77.283-14.725 0-5.097 2.549-7.646 7.646-7.504 6.796.141 13.592.424 20.388.991 5.38.424 6.938 2.265 6.938 7.787 0 24.636-.283 49.413-.425 74.049 0 5.522-2.124 7.646-7.646 7.929-6.088.283-12.035.567-18.123.85h-2.265c-4.814-.142-7.787-2.832-7.787-7.646 0-4.531.141-9.061.283-13.451v-6.937zm-164.665-48.423 139.746-70.651c-8.778-17.274-17.274-33.98-25.91-50.688a113 113 0 0 0-2.124 13.875c-.425 5.522-2.974 10.761-7.221 14.442-4.814 4.53-10.336 8.495-16.283 11.469-9.769 5.097-19.68 10.052-29.45 15.15-14.3 7.079-29.166 13.308-44.458 18.264-4.531 1.699-9.486 2.549-14.3 2.549a46.74 46.74 0 0 1-21.38-5.664c-1.274-.85-2.69-1.416-4.106-1.557a9010 9010 0 0 0 25.486 52.67zm-29.45-68.386a74.5 74.5 0 0 0 12.743 8.07c4.531 2.407 9.486 3.965 14.583 4.248s10.336-.425 15.15-2.265c25.202-9.062 49.555-20.247 72.775-33.698 4.39-2.548 8.212-5.946 12.318-9.203.85-.708 1.7-1.699 2.124-2.69q.85-1.487.85-3.398c.566-7.08 1.133-14.017 1.699-21.096 0-.991-.142-1.84-.425-2.832zm90.899 67.82c5.238-1.699 10.052-3.257 15.008-4.673 4.389-1.415 6.513-.566 9.061 3.54 1.699 2.69 3.257 5.522 4.673 7.787l14.725-5.663c-1.133-2.973-2.407-6.088-3.54-9.345-1.274-3.539-.708-5.805 2.124-8.212.991-.849 1.982-1.557 2.973-2.407l8.212-6.371c-1.699-5.805-3.256-11.469-5.097-17.557l-56.918 28.742c2.974 4.814 5.805 9.345 8.92 14.3zm128.277 65.837c.283-23.22.566-45.874.85-68.669-4.673-.991-9.487-1.133-14.301-.708-.424 23.362-.849 46.582-1.274 70.085zm-24.778-43.467c-12.176-.566-24.069-1.415-36.387-1.557 1.557 5.663-.284 10.477-1.699 15.858l37.945 1.699v-16zm-59.324 16.424c6.229.708 13.026-5.522 13.167-13.309 0-3.398-1.416-6.654-3.681-9.203-2.407-2.407-5.522-3.964-9.062-4.106-6.088-.283-13.026 5.522-13.026 13.309s6.938 13.734 12.743 13.168zM106.19 131.83l7.787-2.69-13.168-26.901-6.937 5.946 12.176 23.645zM23.645 178.27c-3.398 0-5.522-1.416-6.23-3.539-.424-.992-.283-2.124 0-3.257a5.53 5.53 0 0 1 1.982-2.407c14.442-10.052 28.884-19.963 43.468-30.016a9.3 9.3 0 0 1 3.822-1.699c.992-.283 1.983 0 2.832.283.85.425 1.7 1.133 2.124 1.982.566.85.85 1.699.85 2.69s-.425 1.983-.992 2.691c-.85 1.132-1.982 2.123-3.115 2.831-13.733 9.628-27.609 19.256-41.484 28.884-.992.566-2.124 1.132-3.257 1.699zM61.873 117.53q0 1.912-1.274 3.398c-.85.992-1.84 1.558-3.115 1.841-5.097 1.416-10.194 2.549-15.291 3.823-11.044 2.832-22.088 5.522-33.131 8.212-1.416.425-2.974.566-4.39.425q-4.671-.85-4.672-4.673c0-2.548 1.557-4.672 4.53-5.38l11.894-2.973 36.105-8.92c1.557-.425 3.256-.708 4.955-.566a4.4 4.4 0 0 1 1.84.424c.567.283.992.567 1.417 1.133.425.425.708.991.99 1.557.142.567.284 1.133.284 1.841zM60.882 203.048c-3.115 0-5.38-1.982-5.097-4.672 0-1.983.708-3.965 1.7-5.805a2740 2740 0 0 1 20.954-34.123 9 9 0 0 1 1.416-1.84c.85-.85 1.982-1.558 3.115-1.699 1.274-.142 2.407 0 3.54.708.99.708 1.84 1.699 2.123 2.831.283 1.133.283 2.407-.283 3.54a30 30 0 0 1-1.982 3.681c-4.673 7.646-9.486 15.292-14.017 22.937-1.982 3.115-3.681 6.513-5.38 9.77-1.416 2.548-2.974 4.672-5.806 4.672z"/></svg>
